X:1
T:Mazurka de Lapleau
R:Mazurka
B:On Bouge tune book vol 1
M:3/4
L:1/8
N:originally in G
K:C
Gc|e2 egec|e2 egec|d2 dfed|e2 c2 Gc| \
e2 egec|e2 egec|d2 dfed|c4:|
ge|cGcege|f2d2fd|BGBdfd|e2c2ge| \
cGcege|f2d2fd|BGBdfd|c4:|
<end>
<start>
